X: 10391
M: 3/4
L: 1/8
K: Bb
V: 1 staves=2
d2(dc).d.f | d2(dc).d.f | e2(ed).e.f | d4fd |\
c2(cB).c.d | B2(Bd).e.d | c2(cB).c.d | B4 :|
|: f2 |\
bfdfbf | afcfaf | bfdfbf | afcfaf |\
bagfed | cBAGFE | DEFGAc | B4 :|
|: g2 |\
f3ed2 | dg3f2 | (f2=e2_e2) | c4BB |\
f3ed2 | (dg3)f2 | (f2=e2_e2) | c4B2 |\
V: 2
E2(ED).C.D | D2(DB,).C.D | E2(ED).E.F | D4 :|
|: f2 |\
[d2F2][d2F2][d2F2] | [c2F2][c2F2][c2F2] | [B2D2][B2D2][B2D2] | [A2C2][A2C2][A2C2] |\
(Be3d2) | (d2^c2=c2) | A4z2 | d2d2d2 | dfedcB | B2A2A2 | A4 (3(Bc^c) |
d3cB2 | B2B2d2 | d2^c2=c2 | A4z2 | D2B2A2 | G2F2E2 | D2F2E2 | D4 :|


